apps/vs-community-2019/icon.svg

<svg role="img" focusable="false" aria-hidden="true" xmlns="http://www.w3.org/2000/svg" viewBox="0 0 14 14"><path d="m 7.6993595,3.353836 c -1.296839,1.296838 -2.3877961,2.353305 -2.4392664,2.353305 -0.04298,0 -0.7556047,-0.523723 -1.5717002,-1.159407 L 2.2111433,3.388326 1.0087555,3.98952 l 0,6.01247 1.2023878,0.601194 1.3658191,-1.064957 C 4.3330978,8.945523 5.0287422,8.41331 5.1231928,8.352819 5.2951141,8.249878 5.4665048,8.404289 7.6913995,10.620694 L 10.070706,13 l 1.46027,-0.592704 1.460268,-0.584214 0,-9.654654 -1.116427,-0.446783 C 11.265135,1.472253 10.60345,1.214902 10.406059,1.137431 L 10.053726,1 7.7004205,3.353305 Z M 10.027195,6.99602 c 0,1.322839 -0.01698,2.404776 -0.051471,2.404776 -0.120451,0 -3.04046,-2.353305 -3.01499,-2.430776 0.026,-0.09445 2.903029,-2.370816 3.0065,-2.370816 0.034489,-0.0085 0.060489,1.073447 0.060489,2.396286 z M 3.1986295,6.136945 4.0577053,6.99602 3.1986295,7.855096 c -0.472253,0.472253 -0.8845457,0.859076 -0.9190361,0.859076 -0.04298,0 -0.068981,-0.773115 -0.068981,-1.717621 0,-0.944506 0.02547,-1.718152 0.068981,-1.718152 0.03449,0 0.4467831,0.386823 0.9190361,0.859076 z" fill="#5F388B"/></svg>

<svg xmlns="http://www.w3.org/2000/svg" aria-hidden="true" viewBox="0 0 14 14">
  <path fill="#5F388B" d="M7.6994 3.3538C6.4025 4.6507 5.3116 5.7071 5.26 5.7071c-.043 0-.7556-.5237-1.5717-1.1594L2.211 3.3883l-1.2023.6012v6.0125l1.2023.6012 1.3659-1.065c.7561-.5927 1.4517-1.1249 1.5462-1.1854.172-.103.3433.0515 2.5682 2.2679L10.0707 13l1.4603-.5927 1.4602-.5842V2.1684l-1.1164-.4468c-.6097-.2493-1.2713-.5067-1.4687-.5842L10.0537 1 7.7004 3.3533zm2.3278 3.6422c0 1.3229-.017 2.4048-.0515 2.4048-.1204 0-3.0404-2.3533-3.015-2.4308.026-.0944 2.903-2.3708 3.0065-2.3708.0345-.0085.0605 1.0735.0605 2.3963zm-6.8286-.859l.8591.859-.859.8591c-.4723.4722-.8846.859-.9191.859-.043 0-.069-.773-.069-1.7175 0-.9446.0255-1.7182.069-1.7182.0345 0 .4468.3868.919.859z"/>
</svg>
